assets/icons/qvision/format_line_spacing.svg

<svg xmlns="http://www.w3.org/2000/svg" height="24" viewBox="0 0 24 24" width="24"><path d="M0 0h24v24H0z" fill="none"/><path d="M6 7h2.5L5 3.5 1.5 7H4v10H1.5L5 20.5 8.5 17H6V7zm4-2v2h12V5H10zm0 14h12v-2H10v2zm0-6h12v-2H10v2z"/></svg>

<svg width="24" height="24" viewBox="0 0 24 24" fill="none" xmlns="http://www.w3.org/2000/svg">
<g clip-path="url(#clip0_147_2610)">
<path d="M6 7H8.5L5 3.5L1.5 7H4V17H1.5L5 20.5L8.5 17H6V7ZM10 5V7H22V5H10ZM10 19H22V17H10V19ZM10 13H22V11H10V13Z" fill="#323232"/>
</g>
<defs>
<clipPath id="clip0_147_2610">
<rect width="24" height="24" fill="white"/>
</clipPath>
</defs>
</svg>
